!!!COM: Music21
!!!OTL: reel_I-Wish-My-Love-Were-In-A-Mire
!!!OMV: reel_I-Wish-My-Love-Were-In-A-Mire
**kern
*clefG2
*k[f#c#]
*D:
*M4/4
=1
8aL
8bJ
=
4dd
8ff#L
8eeJ
4dd
4f#
=
8eL
8dJ
8eL
8f#J
4b
8aL
8bJ
=
4dd
4a
8ddL
8eeJ
8ff#L
8eeJ
=
4dd
8cc#L
8bJ
4b
8ff#L
8eeJ
=
4dd
8eeL
8ff#J
4dd
4f#
=
8eL
8dJ
8eL
8f#J
4.b
8dd
!!linebreak:original
=
8aL
8bJ
8aL
8f#J
8gL
8f#J
8eL
8dJ
=
4dd
8cc#L
8bJ
4b
4ryy
=||
*M4/4
8aL
8bJ
=
4dd
8ff#L
8eeJ
4dd
4f#
=
8eL
8dJ
8eL
8f#J
4b
8aL
8bJ
=
4dd
4a
8ddL
8eeJ
8ff#L
8eeJ
!!linebreak:original
=
4dd
8cc#L
8bJ
4b
8ff#L
8eeJ
=
4dd
8eeL
8ff#J
4dd
4f#
=
8eL
8dJ
8eL
8f#J
4.b
8dd
=
8aL
8bJ
8aL
8f#J
8gL
8f#J
8eL
8dJ
=
4dd
8cc#L
8bJ
4b
4ryy
=||
8ff#L
8eeJ
2.ryy
=
4dd
8aL
8bJ
4a
8ff#L
8eeJ
!!linebreak:original
=
8ddL
8eeJ
8ddL
8bJ
4a
8ddL
8ff#J
=
4gg
4bb
8aaL
8ff#J
8eeL
8ddJ
=
4gg
8ff#L
8eeJ
4ee
8ff#L
8ggJ
=
8aaL
8ff#J
8eeL
8ff#J
4dd
8aL
8f#J
=
8eL
8dJ
8eL
8f#J
4.b
8dd
=
8aL
8bJ
8aL
8f#J
8gL
8f#J
8eL
8dJ
!!linebreak:original
=
4dd
8cc#L
8bJ
4b
4ryy
=||
8ff#L
8eeJ
2.ryy
=
4dd
8aL
8bJ
4a
8ff#L
8eeJ
=
8ddL
8eeJ
8ddL
8bJ
4a
8ddL
8ff#J
=
4gg
4bb
8aaL
8ff#J
8eeL
8ddJ
=
4gg
8ff#L
8eeJ
4ee
8ff#L
8ggJ
!!linebreak:original
=
8aaL
8ff#J
8eeL
8ff#J
4dd
8aL
8f#J
=
8eL
8dJ
8eL
8f#J
4.b
8dd
=
8aL
8bJ
8aL
8f#J
8gL
8f#J
8eL
8dJ
=
4dd
8cc#L
8bJ
4b
4ryy
=||
*-
